X:3249
L:1/8
M:6/8
K:Gmin
 D | D2 G G2 A | B2 A Bcd | g2 d d2 c | BGG G2 :| g | g2 g g2 g | g2 g bag | f2 e d2 c | d2 c BAG | 
 g2 g g2 g | g2 g bag | f2 d d2 c BGG G2!D.C.! ||

